src/assets/icons/shapes,simple,filled-heart.svg

<svg width="48" height="48" viewBox="0 0 48 48" fill="none" xmlns="http://www.w3.org/2000/svg">
<rect opacity="0.2" x="5" y="5" width="38" height="38" rx="4" fill="black"/>
<path d="M25.2893 34.9764C24.657 35.464 24.3408 35.7079 24 35.7079C23.6592 35.7079 23.343 35.464 22.7107 34.9764C17.5736 31.0143 10 26.1809 10 19.3303C10 15.2579 13.2941 12 17.4118 12C19.6345 12 21.2148 12.8118 22.4112 13.7848C23.2335 14.4536 23.6447 14.788 24 14.788C24.3553 14.788 24.7665 14.4536 25.5888 13.7848C26.7852 12.8118 28.3655 12 30.5882 12C34.7059 12 38 15.2579 38 19.3303C38 26.1809 30.4264 31.0143 25.2893 34.9764Z" fill="black"/>
</svg>

<svg xmlns="http://www.w3.org/2000/svg" width="48" height="48" fill="none" viewBox="0 0 48 48">
  <rect width="38" height="38" x="5" y="5" fill="#000" opacity=".2" rx="4"/>
  <path fill="#000" d="M25.29 34.976c-.633.488-.95.732-1.29.732-.34 0-.657-.244-1.29-.732C17.575 31.014 10 26.181 10 19.33c0-4.072 3.294-7.33 7.412-7.33 2.223 0 3.803.812 5 1.785.822.669 1.233 1.003 1.588 1.003s.767-.334 1.589-1.003c1.196-.973 2.777-1.785 5-1.785C34.705 12 38 15.258 38 19.33c0 6.85-7.574 11.684-12.71 15.646z"/>
</svg>
